res/skins/LateNight/buttons/btn_play_sampler.svg

<?xml version="1.0" encoding="UTF-8" standalone="no"?>
<!-- Created with Inkscape (http://www.inkscape.org/) -->

<svg
   xmlns:dc="http://purl.org/dc/elements/1.1/"
   xmlns:cc="http://creativecommons.org/ns#"
   xmlns:rdf="http://www.w3.org/1999/02/22-rdf-syntax-ns#"
   xmlns:svg="http://www.w3.org/2000/svg"
   xmlns="http://www.w3.org/2000/svg"
   xmlns:xlink="http://www.w3.org/1999/xlink"
   version="1.1"
   width="34"
   height="34"
   id="svg2">
  <defs
     id="defs4">
    <linearGradient
       x1="13"
       y1="1027.3622"
       x2="13"
       y2="1049.3622"
       id="linearGradient3807-3"
       xlink:href="#linearGradient3801-6"
       gradientUnits="userSpaceOnUse"
       gradientTransform="matrix(1.3478261,0,0,1.3478251,-0.17391304,-365.1684)" />
    <linearGradient
       id="linearGradient3801-6">
      <stop
         id="stop3803-7"
         style="stop-color:#242424;stop-opacity:1"
         offset="0" />
      <stop
         id="stop3805-5"
         style="stop-color:#101010;stop-opacity:1"
         offset="1" />
    </linearGradient>
    <linearGradient
       x1="13"
       y1="1027.3622"
       x2="13"
       y2="1049.3622"
       id="linearGradient5688"
       xlink:href="#linearGradient3801-6"
       gradientUnits="userSpaceOnUse"
       gradientTransform="matrix(1.3478261,0,0,1.3478251,-0.17391304,-1383.5306)" />
  </defs>
  <metadata
     id="metadata7">
    <rdf:RDF>
      <cc:Work
         rdf:about="">
        <dc:format>image/svg+xml</dc:format>
        <dc:type
           rdf:resource="http://purl.org/dc/dcmitype/StillImage" />
        <dc:title></dc:title>
      </cc:Work>
    </rdf:RDF>
  </metadata>
  <rect
     width="32"
     height="32"
     rx="2"
     ry="2"
     x="2"
     y="1.9999826"
     id="rect3029-6"
     style="opacity:0.62085308;color:#000000;fill:#060606;fill-opacity:1;fill-rule:nonzero;stroke:none;stroke-width:1;marker:none;visibility:visible;display:inline;overflow:visible;enable-background:accumulate" />
  <rect
     width="32"
     height="32"
     rx="2"
     ry="2"
     x="1"
     y="0.9999826"
     id="rect3029-6-6"
     style="opacity:0.72000002;color:#000000;fill:#000000;fill-opacity:1;fill-rule:nonzero;stroke:none;stroke-width:1;marker:none;visibility:visible;display:inline;overflow:visible;enable-background:accumulate" />
  <rect
     width="31"
     height="31"
     rx="2"
     ry="2"
     x="0.5"
     y="0.49998263"
     id="rect3029"
     style="color:#000000;fill:url(#linearGradient5688);fill-opacity:1;fill-rule:nonzero;stroke:none;stroke-width:1;marker:none;visibility:visible;display:inline;overflow:visible;enable-background:accumulate" />
  <g
     transform="translate(0,-1018.3622)"
     id="g3770">
    <path
       d="M 23.950173,1035.3623 12,1043.34 l 0,1.6562 13.200173,-8.7902 z"
       id="path3936-0-8-9-3"
       style="fill:#060606;fill-opacity:1;stroke:none;display:inline" />
    <path
       d="m 11,1026.7283 12.950173,8.634 L 11,1043.9962 l 0,-17.2679"
       id="path3936-0-8-9-7"
       style="fill:#bfbfbf;fill-opacity:1;stroke:none;display:inline" />
  </g>
  <path
     d="M 2.65625,0 C 1.1904481,0 0,1.1904481 0,2.65625 l 0,26.6875 C 0,30.809552 1.1904481,32 2.65625,32 l 26.6875,0 C 30.809552,32 32,30.809552 32,29.34375 L 32,2.65625 C 32,1.1904481 30.809552,0 29.34375,0 L 2.65625,0 z m 0.125,1 26.4375,0 C 29.985999,1 31,2.0140019 31,2.78125 l 0,26.4375 C 31,29.985999 29.985999,31 29.21875,31 L 2.78125,31 C 2.0140019,31 1,29.985999 1,29.21875 L 1,2.78125 C 1,2.0140019 2.0140019,1 2.78125,1 z"
     id="path5055"
     style="font-size:medium;font-style:normal;font-variant:normal;font-weight:normal;font-stretch:normal;text-indent:0;text-align:start;text-decoration:none;line-height:normal;letter-spacing:normal;word-spacing:normal;text-transform:none;direction:ltr;block-progression:tb;writing-mode:lr-tb;text-anchor:start;baseline-shift:baseline;color:#000000;fill:#585858;fill-opacity:1;fill-rule:nonzero;stroke:none;stroke-width:1;marker:none;visibility:visible;display:inline;overflow:visible;enable-background:accumulate;font-family:Sans;-inkscape-font-specification:Sans" />
</svg>

<svg id="svg2" width="34" height="34" version="1.1" xmlns="http://www.w3.org/2000/svg"><defs id="defs4"><linearGradient id="linearGradient5688" x1="13" x2="13" y1="1027.4" y2="1049.4" gradientTransform="matrix(1.3478 0 0 1.3478 -.17391 -1383.5)" gradientUnits="userSpaceOnUse"><stop id="stop3803-7" stop-color="#242424" offset="0"/><stop id="stop3805-5" stop-color="#101010" offset="1"/></linearGradient></defs><rect id="rect3029-6" x="2" y="2" width="32" height="32" rx="2" ry="2" color="#000000" fill="#060606" opacity=".62085"/><rect id="rect3029-6-6" x="1" y=".99998" width="32" height="32" rx="2" ry="2" color="#000000" opacity=".72"/><rect id="rect3029" x=".5" y=".49998" width="31" height="31" rx="2" ry="2" color="#000000" fill="url(#linearGradient5688)"/><g id="g3770" transform="translate(0 -1018.4)"><path id="path3936-0-8-9-3" d="m23.95 1035.4-11.95 7.9777v1.6562l13.2-8.7902z" fill="#060606"/><path id="path3936-0-8-9-7" d="m11 1026.7 12.95 8.634-12.95 8.6339v-17.268" fill="#bfbfbf"/></g><path id="path5055" d="m2.6562 0c-1.4658 0-2.6562 1.1904-2.6562 2.6562v26.688c0 1.4658 1.1904 2.6562 2.6562 2.6562h26.688c1.4658 0 2.6562-1.1904 2.6562-2.6562v-26.688c0-1.4658-1.1904-2.6562-2.6562-2.6562h-26.688zm0.125 1h26.438c0.76725 0 1.7812 1.014 1.7812 1.7812v26.438c0 0.76725-1.014 1.7812-1.7812 1.7812h-26.438c-0.76725 0-1.7812-1.014-1.7812-1.7812v-26.438c0-0.76725 1.014-1.7812 1.7812-1.7812z" color="#000000" fill="#585858" style="block-progression:tb;text-indent:0;text-transform:none"/></svg>
